X:1
T:Fado das Salas
T:Fado das Salas
T:in "Cantos Populares - 12 Fados para Piano"
T:Editor: Eduardo da Fonseca - Porto [ca. 1900] 
%%score { 1 | 2 }
L:1/8
Q:1/4=55
M:2/4
K:C
V:1 treble nm="Piano" snm="Pno."
V:2 bass 
V:1
"^Moderato" e |: e>e (^d/e/g/f/) | ed- d z/ d/ | d>d (d/f/e/d/) | e2- e z/ c/ | c>c (c/e/d/c/) | %6
 cB- B(d | c/)(E/A/c/ B)!>![D^G] | !>![CA]2 z e :: e/E/A/c/ (!>!fe) | (e/E/^G/B/ e).e | %11
 e/E/^G/B/ (!>!fe) | (e/E/A/c/ e).e | ([Aa]/g/).f/.e/ (d/c/).B/.A/ | B/(D/F/B/ d)!>![Dd] | %15
 [Ec]/(E/A/c/ B)!>![D^G] |1 [CA]2 z e :|2 [CA]2 z z |] %18
V:2
 z |: A,,E, [A,C]E, | B,,E, [^G,D]E, | E,,E, [^G,D]E, | A,,E, [A,C]E, | A,,E, [A,C]E, | %6
 E,,E, [^G,D]E, | A,,[E,A,C] E,,!>![E,B,] | A,,E, [A,C]E, :: A,,E, [A,C]E, | B,,E, [^G,D]E, | %11
 E,,E, [^G,D]E, | A,,E, [A,C]E, | C,E, [A,C]E, | D,F, B,F, | E,[A,C] E,!>![E,B,] |1 A,E, A,, z :|2 %17
 A,E, A,, z |] %18

